X:1
T:This Guy's In Love With You
T:This Guy's In love
C:Burt Bacharach
Z:All Rights Reserved
L:1/8
M:4/4
K:Eb
V:1 treble nm="Voice"
%%MIDI program 52
V:1
 z2"Eb" GG- G2 GG- |"Abmaj7" G3 z z2 z G | c2 C3 E F2 |"Dbmaj7" F6 z2 | z2"Eb" GG- G2 GG- | %5
w: You see * this guy|* This|guy's in love with|you.|Yes I'm * in love|
w: I've heard * some talk|* They|say you think I'm|fine|Yes I'm * in love|
"Abmaj7" G3 z z2 z G |"G7sus4" G2 G2"G7" =A2 =B2 |"Cm7" d e2 e- e4 |"Bbm7" _d e2 e- e4 | %9
w: * Who|looks at you the|way I do? *|When you smile *|
w: * and|what I'd do to|make you mine *|Tell me now *|
"Db/Eb" _d2 f2"Eb7" e2 d2 |"Abmaj7" e2 f2 g f3 |"Abm6" F2 G2 G2 F2 |"Gm7" B6 G2 |"Cm7" c2 E4 F2 | %14
w: I can tell we|know each oth- er|ver- y well. How|can I|show you I'm|
w: is it so don't|let me be the|last to know My|hands are|shak- ing don't|
"Fm6" B6 G2 |"Bb7sus4" c2 E2 F>E F2 |"Eb" z2 GG- G2 GG |"Abmaj7" z2 GG- G2 GG | z2 GG- G2 Bc- | %19
w: glad I|got to know you, 'cause|I need * your love,|I want * your love|say you're * in love,|
w: let my|heart keep break- ing cause||||
 c6"Cm6" =A2 |"Cm7" G4"F7" c =A3 |"Bb""Bbmaj7" F8- |"Bb7" F2 z F (3A2 G2 F2 |"Eb" (G/F/)E- E4 z2 |] %24
w: * in|love with this|guy|* If not I shall|die * * *|
w: |||||

